src/images/icons/theme.svg

<svg width="32" height="32" viewBox="0 0 32 32" fill="currentColor" xmlns="http://www.w3.org/2000/svg">
<path fill-rule="evenodd" clip-rule="evenodd" d="M27.1779 3.86164C28.0031 4.846 28.5 6.11496 28.5 7.49998C28.5 12.7254 28.4707 23.4127 28.4707 23.4127C28.1805 26.2701 25.7673 28.5 22.8333 28.5H7.49997C6.11496 28.5 4.846 28.0031 3.86164 27.1779C3.65002 27.0005 3.65133 26.682 3.84659 26.4867L26.4867 3.84659C26.682 3.65133 27.0005 3.65002 27.1779 3.86164ZM19.3824 15.3986C19.0796 15.032 19.2872 14.4291 19.7515 14.5315C27.1372 16.1605 23.6759 27.5161 16.5236 24.4558C16.2451 24.3366 16.3291 23.9401 16.6219 23.8622C20.1207 22.9315 21.7134 18.2208 19.3824 15.3986Z"/>
<path d="M6.83333 9.83333C6.83333 8.17647 8.17647 6.83333 9.83333 6.83333C11.4902 6.83333 12.8333 8.17647 12.8333 9.83333C12.8333 11.4902 11.4902 12.8333 9.83333 12.8333C8.17647 12.8333 6.83333 11.4902 6.83333 9.83333Z"/>
<path d="M9.33333 3.99999C9.33333 3.35515 10.3333 3.35515 10.3333 3.99999V5.66666C10.3333 6.31151 9.33333 6.31151 9.33333 5.66666V3.99999Z"/>
<path d="M9.33333 14C9.33333 13.3551 10.3333 13.3551 10.3333 14V15.6667C10.3333 16.3115 9.33333 16.3115 9.33333 15.6667V14Z"/>
<path d="M15.6667 9.33333C16.3115 9.33333 16.3115 10.3333 15.6667 10.3333H14C13.3551 10.3333 13.3551 9.33333 14 9.33333H15.6667Z"/>
<path d="M5.66666 9.33333C6.31151 9.33333 6.31151 10.3333 5.66666 10.3333H3.99999C3.35515 10.3333 3.35515 9.33333 3.99999 9.33333H5.66666Z"/>
<path d="M13.6045 5.35501C14.0605 4.89904 14.7676 5.60614 14.3116 6.06212L13.1331 7.24063C12.6771 7.6966 11.97 6.9895 12.426 6.53352L13.6045 5.35501Z"/>
<path d="M6.53348 12.4261C6.98946 11.9701 7.69657 12.6772 7.24059 13.1332L6.06208 14.3117C5.6061 14.7676 4.899 14.0605 5.35497 13.6046L6.53348 12.4261Z"/>
<path d="M14.3116 13.6045C14.7676 14.0605 14.0605 14.7676 13.6045 14.3116L12.426 13.1331C11.97 12.6771 12.6772 11.97 13.1331 12.426L14.3116 13.6045Z"/>
<path d="M7.2406 6.53348C7.69657 6.98946 6.98946 7.69657 6.53349 7.24059L5.35498 6.06208C4.899 5.6061 5.60611 4.899 6.06208 5.35497L7.2406 6.53348Z"/>
</svg>

<svg xmlns="http://www.w3.org/2000/svg" fill="currentColor" viewBox="0 0 32 32">
  <path fill-rule="evenodd" d="M27.178 3.862A5.644 5.644 0 0 1 28.5 7.5v15.333a5.667 5.667 0 0 1-5.667 5.667H7.5a5.644 5.644 0 0 1-3.638-1.322.468.468 0 0 1-.015-.691l22.64-22.64a.468.468 0 0 1 .69.015Zm-7.796 11.537c-.302-.367-.095-.97.37-.867.301.066.6.162.895.287l.442.19a5 5 0 0 1 2.63 6.564l-.189.442a5 5 0 0 1-6.564 2.63l-.442-.19c-.279-.118-.195-.515.098-.593a4.992 4.992 0 0 0 3.315-2.866l.189-.443a5 5 0 0 0-.744-5.154Z" clip-rule="evenodd"/>
  <path d="M6.833 9.833a3 3 0 1 1 6 0 3 3 0 0 1-6 0ZM9.333 4a.5.5 0 0 1 1 0v1.667a.5.5 0 1 1-1 0V4Zm0 10a.5.5 0 0 1 1 0v1.667a.5.5 0 1 1-1 0V14Zm6.334-4.667a.5.5 0 0 1 0 1H14a.5.5 0 1 1 0-1h1.667Zm-10 0a.5.5 0 1 1 0 1H4a.5.5 0 1 1 0-1h1.667Zm7.937-3.978a.5.5 0 0 1 .708.707l-1.179 1.179a.5.5 0 1 1-.707-.707l1.178-1.179Zm-7.07 7.071a.5.5 0 1 1 .707.707l-1.179 1.179a.5.5 0 0 1-.707-.707l1.178-1.179Zm7.778 1.178a.5.5 0 0 1-.707.708l-1.179-1.179a.5.5 0 0 1 .707-.707l1.179 1.178ZM7.24 6.533a.5.5 0 0 1-.707.708L5.356 6.062a.5.5 0 0 1 .707-.707l1.179 1.178Z"/>
</svg>
